X:1
T:Title
%%score { 1 | 2 }
L:1/8
M:3/4
K:G
V:1 treble nm="Grand Piano"
V:2 bass 
V:1
 z2 z2[Q:1/4=94] [B,D]2 | [B,D][CE] [DG]2 A2 | Bc d2 [DG]2 | [DFc]3 [DGB] [CEA][B,EG] | %4
[M:2/4] G2 F2 |[M:1/4] D2 |[M:3/4] D[B,G] G2 A2 | Bc [Gd]2 [DB]2 | %8
 [DA]3[K:bass] [F,D] [A,DF][G,^CE] |[M:2/4] [G,^CE]2 [F,D]2 |[M:1/4][K:treble] [Ac]2 | %11
[M:3/4] [Ac][GB] [GB]2 [FA]2 | [FA]B B2 G2 | e3 d cB |[M:2/4] [GB]2 [FA]2 |[M:1/4] D2 | %16
[M:3/4] D[B,G] G2 A2 | AB B2 c2 | [=Fd]3 [G,EG] [D^Fc][DGB] |[M:5/8] [CFA]2 [B,G]3 |] %20
V:2
 z2 z2 [G,,G,]2 | [G,,G,][C,G,] [B,,G,]2 [D,F,D]2 | [G,D][G,A,D] [G,B,G]2[K:bass] B,,2 | %3
 A,,3 G,, C,^C, |[M:2/4] [D,B,D]2 [D,A,D]2 |[M:1/4] [D,F,]2 | %6
[M:3/4] [B,,G,][G,,G,] [E,G,B,]2 [D,F,D]2 | [G,D][E,G,E] [B,,G,]2 [^G,,=F,]2 | %8
 [A,,F,]3 A,, A,,A,, |[M:2/4] A,,2 D,2 |[M:1/4] [D,D]2 |[M:3/4] [D,D][D,D] [D,D]2 [D,D]2 | %12
 [D,D][K:treble][G,DG] [G,DG]2 [B,D]2 | [CG]3 [B,DG] [A,DF][G,DG] |[M:2/4][K:bass] [D,D]2 [D,D]2 | %15
[M:1/4] [C,F,]2 |[M:3/4] [B,,G,][G,,G,] [E,G,B,]2 [D,F,D]2 | [D,F,D][G,D] [G,D]2 [E,G,E]2 | %18
 [B,,G,]3 C, A,,G,, |[M:5/8] D,2 G,,3 |] %20

